!!!SOCIAL_FUNCTION:	begging dance songs
!!!PDT:	1913
!!!OTL: No_115_Here_I_Come_Again.krn
!!!REG: Great_Lakes
!!!LANG: Non-Tone
!!!LING_GROUP: Algonquin
**kern	**kern
*staff2	*staff1
=1-	=1-
*clefF4	*clefF4
*k[b-e-a-d-]	*k[b-e-a-d-]
*M2/4	*M2/4
12GG^/	12e-\L
12r	12e-\
12GG/	12e-\J
12GG^/	8.f\L
12r	.
12GG/	.
.	16e-\Jk
=2	=2
2r	2e-\
=3||	=3||
*M3/4	*M3/4
2.r	12d-\L
.	12d-\
.	12c\J
.	8.B-\L
.	16A-\Jk
.	4A-\
=4||	=4||
*M2/4	*M2/4
2r	12c\L
.	12A-\
.	12A-\J
.	8.B-\L
.	16A-\Jk
=5	=5
2r	8.A-\L
.	16A-\Jk
.	[4A-\
=6	=6
2r	2A-\]
=7!|:	=7!|:
2r	12d-\L
.	12d-\
.	12B-\J
.	8.d-\L
.	16d-\Jk
=8	=8
2r	2B-\
=9	=9
2r	16A-\LL
.	16A-\J
.	8B-\J
.	(12d-^\L
.	12B-\)
.	12d-\J
=10	=10
2r	2A-\
=11	=11
2r	12F\L
.	12F\
.	12E-\J
.	8.F\L
.	16E-\Jk
=12	=12
2r	2E-\
=13	=13
2r	12D-\L
.	12D-\
.	12C\J
.	8.BB-/L
.	16AA-/Jk
=14	=14
2r	8.AA-/L
.	16AA-/Jk
.	[4AA-/
=15	=15
2r	2AA-/]
=16	=16
2r	12A-\L
.	12A-\
.	12A-\J
.	8.B-\L
.	16A-\Jk
=17	=17
2r	8.A-\L
.	16A-\Jk
.	[4A-\
=18	=18
2r	2A-\]
==:|!	==:|!
*-	*-
